icons/stack.svg

<svg xmlns="http://www.w3.org/2000/svg" viewBox="0 0 24 24" fill="currentColor">
  <path d="M12.9 3.95002c-.5333-.4-1.2667-.4-1.8 0l-.0541.04058-6.00796 3.00397c-.81727.60557-.81727 1.90534 0 2.5109l6.00796 3.00393.0541.0406c.5333.4 1.2667.4 1.8 0l.0541-.0406 6.008-3.00393c.8172-.60556.8172-1.90533 0-2.5109l-6.008-3.00397-.0541-.04058Zm.8416-1.24274c-1.0417-.74301-2.4415-.74301-3.4832 0L4.2669 5.70304l-.04382.03034c-1.73079 1.19824-1.73079 3.83505 0 5.03332l.04382.0303 5.9915 2.9958c1.0417.743 2.4415.743 3.4832 0l5.9915-2.9958.0438-.0303c1.7308-1.19827 1.7308-3.83508 0-5.03332l-.0438-.03034-5.9915-2.99576ZM3.97912 13.5146c.18525-.3705.63575-.5206 1.00623-.3354l6.06045 3.0302.0541.0406c.5334.4 1.2667.4 1.8001 0l.0541-.0406 6.0604-3.0302c.3705-.1852.821-.0351 1.0063.3354.1852.3705.0351.821-.3354 1.0062l-5.9439 2.972c-1.0417.743-2.4414.743-3.4831 0l-5.94387-2.972c-.37048-.1852-.52065-.6357-.33541-1.0062Zm1.00623 3.4646c-.37048-.1852-.82098-.035-1.00623.3355-.18524.3704-.03507.8209.33541 1.0062l5.94387 2.9719c1.0417.743 2.4414.743 3.4831 0l5.9439-2.9719c.3705-.1853.5206-.6358.3354-1.0062-.1853-.3705-.6358-.5207-1.0063-.3355l-6.0604 3.0303-.0541.0406c-.5334.4-1.2667.4-1.8001 0l-.0541-.0406-6.06045-3.0303Z"/>
</svg>

<svg width="24" height="24" viewBox="0 0 24 24" fill="none" xmlns="http://www.w3.org/2000/svg">
<path fill-rule="evenodd" clip-rule="evenodd" d="M12.9 3.95002C12.3667 3.55002 11.6333 3.55002 11.1 3.95002L11.0459 3.9906L5.03794 6.99457C4.22067 7.60014 4.22067 8.89991 5.03794 9.50547L11.0459 12.5094L11.1 12.55C11.6333 12.95 12.3667 12.95 12.9 12.55L12.9541 12.5094L18.9621 9.50547C19.7793 8.89991 19.7793 7.60014 18.9621 6.99457L12.9541 3.9906L12.9 3.95002ZM13.7416 2.70728C12.6999 1.96427 11.3001 1.96427 10.2584 2.70728L4.2669 5.70304L4.22308 5.73338C2.49229 6.93162 2.49229 9.56843 4.22308 10.7667L4.2669 10.797L10.2584 13.7928C11.3001 14.5358 12.6999 14.5358 13.7416 13.7928L19.7331 10.797L19.7769 10.7667C21.5077 9.56843 21.5077 6.93162 19.7769 5.73338L19.7331 5.70304L13.7416 2.70728ZM3.97912 13.5146C4.16437 13.1441 4.61487 12.994 4.98535 13.1792L11.0458 16.2094L11.0999 16.25C11.6333 16.65 12.3666 16.65 12.9 16.25L12.9541 16.2094L19.0145 13.1792C19.385 12.994 19.8355 13.1441 20.0208 13.5146C20.206 13.8851 20.0559 14.3356 19.6854 14.5208L13.7415 17.4928C12.6998 18.2358 11.3001 18.2358 10.2584 17.4928L4.31453 14.5208C3.94405 14.3356 3.79388 13.8851 3.97912 13.5146ZM4.98535 16.9792C4.61487 16.794 4.16437 16.9442 3.97912 17.3147C3.79388 17.6851 3.94405 18.1356 4.31453 18.3209L10.2584 21.2928C11.3001 22.0358 12.6998 22.0358 13.7415 21.2928L19.6854 18.3209C20.0559 18.1356 20.206 17.6851 20.0208 17.3147C19.8355 16.9442 19.385 16.794 19.0145 16.9792L12.9541 20.0095L12.9 20.0501C12.3666 20.4501 11.6333 20.4501 11.0999 20.0501L11.0458 20.0095L4.98535 16.9792Z" fill="black"/>
</svg>
